X:1
T:James Gibb editions
T:Adoramus te Christe - Saladino
T:#
%%score { 1 | 2 } 3
L:1/8
Q:1/4=76
M:3/4
K:Bb
V:1 treble nm="Soprano I" snm="S"
V:2 treble 
V:3 treble nm="Alto" snm="A"
V:1
"^andante""^Adoramus te Christe""^Michele Saladino\n (1835-1912)" z6 |!p! (B6 |!<(! A2 B2) c2!<)! | %3
w: |A\-|* * do-|
 d2!>(! e2 d2!>)! | (c2 B2 A2) |[M:3/4] G4 z2 | z6 | z6 | z6 | e6 | (B2 A2) B2 | c6- | c2 B2 F2 | %13
w: ra- mus te|Chri\- * *|ste,||||et|be\- * ne-|di\-|* ci- mus|
 (G4 A2) | B6- | B4 z2 | B2 B2 c2 |!>(! c2 B4!>)! | (=B2 c2) (dg) | f2 e4 | (f2 e2) d2 | c4 c2 | %22
w: ti\- *|bi:||qui- a per|san- ctam|cru\- * cem *|tu- am|re\- * de-|mi- sti,|
"^dim.""^rit."[Q:1/4=75] c[Q:1/4=74]B[Q:1/4=72] c2[Q:1/4=70] ^c2 |[Q:1/4=68] d2[Q:1/4=68] A4 | %24
w: re- de- mi- sti|mun- dum.|
[Q:1/4=68][Q:1/4=76][Q:1/4=68] z6 | z6 | z2 z c (de) | f4- fg | f2 e4 | d4 (ed) | %30
w: ||A- do\- *|ra\- * mus|te Chri-|ste et *|
[Q:1/4=76]"^dim."[Q:1/4=76] c3 B AB | A2 (d4- | d2 c2 G2) | c4 z2 |!p! B6 | B6 | B6- | B2 A2 G2 | %38
w: be- ne- di- ci-|mus ti\-||bi:|qui-|a|per|* san- ctam|
 (^F2 G2) A2 | (Bc) d4- | d2 c2 c2- | c2 c2 B2 | %42
w: cru\- * cem|tu\- * am|* re- de\-|* mi- sti|
"^rit."[Q:1/4=74] A6[Q:1/4=72][Q:1/4=71][Q:1/4=69] |[Q:1/4=68] G4 z2 |[Q:1/4=76] z2 B2 c2 | d4 G2 | %46
w: mun-|dum,|re- de-|mi- sti|
[Q:1/4=68] (G4"^lento" A2) | =B6- | B4 z2 |] %49
w: mun\- *|dum.||
V:2
!p! G6- | G6 |!<(! G6!<)! | G2!>(! ^F2 G2!>)! | (A2 G=F E2) |[M:3/4] D4 z2 | z6 | G6- | G6 | %9
w: A\-||do-|ra- mus te|Chri\- * * *|ste,||et||
 (^F2 G2 AG | =F6 | E4) (FE) | D2 F4- | F2 E4 | (D2 E2 G2) | F4 z2 | G2 G2 _A2 |!>(! _A2 G4!>)! | %18
w: be\- * * *||* ne\- *|di- ci\-|* mus|ti\- * *|bi:|qui- a per|san- ctam|
 (G_A) G4 | (G_A B2) c2- | c2 (B4- | B2 =A2) G2 |"^dim.""^rit." (F3 A) G2 | G2 ^F4 | %24
w: cru\- * cem|tu\- * * am|* re\-|* * de-|mi\- * sti|mun- dum.|
"^a tempo" G2 (A2 B2) |"^cresc." (c4 B2- | B2 A4- | A2 B2) c2 | d4 c2- | c2 B4- |"^dim." BA G2 G2 | %31
w: A- do\- *|ra\- *||* * mus|te Chri\-|* ste,|* et be- ne-|
 ^F2 (GA) (G=F) | (=E2 F2 E2) | F4 z2 | z6 |!p! _E6 | E4 E2 | e6- | e2 (d2 c2) | (B3 A) (GF) | %40
w: di- ci\- * mus *|ti\- * *|bi:||qui-|a per|san\-|* ctam *|cru\- * cem *|
 E2 G4 | ^FG A2 G2- |"^rit." G2 (^F=E F2) | D4 z2 |"^a tempo" G4 G2 | G2 D4 | E6 | D6- | D4 z2 |] %49
w: tu- am|re- de- mi- sti|* mun\- * *|dum,|re- de-|mi- sti|mun-|dum.||
V:3
 z6 | z6 |!p!!<(! (E6!<)! | B,2!>(! A,2 B,2!>)! | CD E2) C2 | %5
w: ||A\-||* * * do-|
[M:3/4] (B,A,)"^," G,2"^sempre p" (ED) | (CB, A,2 D2) | G,2 z2 z2 | B,6 | (A,2 B,2 C2 | D2 E2 D2 | %11
w: ra\- * mus te *|Chri\- * * *|ste,|et|be\- * *||
 C2 B,2) A,2 | B,2 D4- | D2 C4 | (B,2 G,2 E2) | D4 z2 | E2 E2 D2 |!>(! D2 E4!>)! | (F2 E2) =B,2 | %19
w: * * ne-|di- ci\-|* mus|ti\- * *|bi:|qui- a per|san- ctam|cru\- * cem|
 (C2 G2) _A2- | A2 (G2 F2 | E2 F2) E2 |"^dim.""^rit." (D2 A,3) A, | (B,C) D4 | z6 | %25
w: tu\- * am|* re\- *|* * de-|mi\- * sti|mun\- * dum.||
"^cresc." (E2 F2) G2 | (F4 E2- | E2 D2) A,2 | B,2 (CDEF) | G4 C2 |"^dim." (F2 ED) C2 | %31
w: A\- * do-|ra\- *|* * mus|te Chri\- * * *|ste, et|be\- * * ne-|
 (DC B,3) A, | G,2 (A,B,CB,) | A,4 z2 | z6 | z6 |!p! G6 | C6 | D2 =E2 ^F2 | (G2 G,2) B,2 | %40
w: di\- * * ci-|mus ti\- * * *|bi:|||qui-|a|per san- ctam|cru\- * cem|
 (CD) E4 | D3 D DD |"^rit." (DE D3 C) | B,4 z2 | z2 E2 E2 | B,2 B,4 | C6 | G,6- | G,4 z2 |] %49
w: tu\- * am|re- de- mi- sti|mun\- * * *|dum,|re- de-|mi- sti|mun-|dum.||

